X: 4721
T: Boys Of Ballinlough, The
R: hornpipe
M: 4/4
K: Eminor
|:GF|EFGA BAGF|EFGA (3BcB BG|DEFG ABAG|F2D2 D2GF|
EFGA BAGF|EFGA B2BA|GABG (3ABA FA|G2E2 E2:|
|:Bd|efed BedB|ABAG FGAc|BEED EFGA|FGFE D2Bd|
efed BedB|ABAG FGAc|BAGB (3ABA FA|G2E2 E2:|

